X:1
T:Gaudeamus II
T:Gaudeamus II
T:André Vierendeels (21/05/11)
C:André Vierendeels
C:(21/05/11)
%%score [ 1 2 3 4 ]
L:1/8
Q:1/4=120
M:2/2
K:F
V:1 treble nm="Soprano" snm="S"
V:2 treble nm="Alto" snm="A"
V:3 treble-8 nm="Tenor" snm="T"
V:4 bass nm="Bass" snm="B"
V:1
 z8 | z8 | F2 G2 A4 | d4 G4 | F4 G4- | G8 | A8 | A8 | B4 A4 | B4 G4 | A4 G4 | E4 D4 | A4 B4 | %13
w: ||a- mus, gau-||||de-|a-|mus, a-|||* mus,|a- mus,|
 c4 G4 | A4 B4 | A4 G4 | A8 | G4 A4 | A8 | A4 c4 | B4 c4 | B8 | F4 A4- | A4 c4 | A2 d4 B2 | c4 A4 | %26
w: gau- *|* de-|a- mus,|gau-|* de-|a-|mus, gau-|||de- a-|* mus,|gau- * *||
 A2 G2 F2 E2 | D8 | z8 | A6 c2 | c4 d4 | A4 c4 | B4 A4 | B4 A2 B2 | c2 A4 BG | E4 F4 || c8 | c8 | %38
w: |de-||a- mus,|gau de-|a- mus.-|Ps.Ex- *||||tet|ju-|
 c4 A2 B2 | c4 A4 | c8 | c8 | c2 A2 B4 | A8 || c8 | c8 | c8 | c8 | c4 B4 | A8 | c8 | c8 | c8 | c8 | %54
w: sti in *|Do- _|mi-|no.|Glo- * *|ri-|a|Pa-|tre|et|Fi- li-|o|et|Spi-|ri-|tu-|
 c4 B4 | A4 c4 | c8 | c4 A4 | B2 F2 A4 | B4 G2 B2 | A8 |] %61
w: i San-|cto. A-|men.|mus, *|||gau-|
V:2
 z8 | C2 D2 D4 | A2 B2 A4 | A4 E4 | C4 E4 | D4 G4 | F8 | F8 | G4 C4 | D8 | A,4 =B,2 D2- | %11
w: |Gau- de- a-|* * mus,|gau- de-|a- *||mus,|gau-|de- a-|||
 D2 ^C2 A,4 | z4 D4 | A4 E4 | F4 D4 | F4 E4 | F8 | E4 C4 | F4 D4 | D4 E4 | D4 F4 | D8 | z8 | %23
w: * * mus,|gau-|de- a-|* mus,|gau- de-|a-|* mus,|gau- de-|a- *||mus,-||
 F4 F4 | D8 | G4 F4 | D4 G4 | A8 | z8 | F6 G2 | E4 G4 | D4 G4 | D8- | D8 | C6 D2- | D2 ^C2 D4 || %36
w: gau- de-|a-|||mus,||gau- de-|a- mus,|gau de-|a-|||* * mus.|
 A8 | A8 | A4 D4 | C4 F4 | E8 | F8 | C4 D4 | F8 || A8 | A8 | A8 | A8 | A4 D4 | F8 | E8 | F8 | F8 | %53
w: Ps.Ex-|sul-|tet ju-|sti _|in|Do-|mi- *|no.|Glo-|ri-|a|Pa-|tri et|Fi-|li-|o|et|
 F8 | F4 D4 | F4 E4- | E4 F4 | F8 | D2 C2 F4 | D6 E2 | D8 |] %61
w: Spi-|ri- tu-|i San-|* cto.|A-|||men.|
V:3
 C2 D2 D4 | A2 B2 A4 | A2 G2 A2 G2 | F2 G2 (3G2 c2 A2 | A4 G3 A | B2 A2 B4 | A8 | A4 F3 G | %8
w: Gau- de- a-|* * mus|o- * mnes _|in _ Do- * *|mi- * *|* * no,|_|di- em _|
 G2 G2 F4 | D2 G2 G4 | F4 D2 G2 | G4 F4 | F2 G2 G4 | (3A2 c2 A2 G2 A2- | A4 G4 | F2 A2 G2 c2- | %16
w: fe- stum _|ce- * le-|* bran- *|tes _|sub ho- no-|* * * re- *||San- cto- rum _|
 c2 A2 A4 | =B4 A4 | F2 G2 F2 G2 | F2 F2 G2 G2 | G4 (3A2 c2 A2 | G2 A2 G4 | F2 G2 F4 | %23
w: _ o- mni-|* um:|de _ quo- *|rum so- lem- ni-|ta- * * *|te _ _|gau- * dent|
 F2 G2 A2 G2 | A2 G4 F2 | E4 F2 G2 | F2 G2 G4 | F4 z4 | F2 G2 G4 | A2 c2 A2 G2 | A4 G4 | %31
w: An- * * *|* ge- *||* * li,|_|et col- lau-|||
 F2 G2 E2 F2 | F2 G2 A2 F2 | G2 FE D4 | E2 F2 E2 F2 | E4 D4 || F2 G2 A2 A2 | A2 A2 c2 A2 | %38
w: Fi- * * li-|um _ _ _|_ _ _ De-||i. _|Ps.Ex- sul- * ta-|te ju- * sti|
 A2 A2 A2 G2 | G4 A4 | G2 F2 G2 A2 | A2 A2 (3A2 c2 A2 | G2 F2 F4 | D8 || F2 G2 A2 A2 | %45
w: in Do- mi- *|no: _|re- * ctos _|de- cet col- * *|lau- da- ti-|o.|Glo- ri- * a|
 A2 A2 A2 A2 | A2 A4 A2 | A2 c2 A2 A2 | A2 G2 G4 | A8 | G2 F2 G2 A2 | A2 A2 A2 A2 | A2 A2 A4 | %53
w: Pa- tri et Fi-|li- o et|Spi- ri- tu- i|San- * cto|_|sic- * ut _|e- rat in prin-|ci- pi- o|
 A2 A2 c2 A2 | A2 G2 G4 | A4 G2 F2 | G2 A2 A2 A2 | A2 A2 (3A2 c2 A2 | G2 F2 F4 | D2 C2 D4 | F8 |] %61
w: et nunc _ et|sem- * per|_ et _|in _ sae- cu-|la sae- cu- * *|lo- rum. A-||men.|
V:4
 z8 | z8 | F,2 G,2 D,4- | D,4 C,4 | F,4 C,4 | G,8 | D,8 | D,8 | G,,4 A,,4 | G,,4 B,,4 | F,,4 G,,4 | %11
w: ||a- mus, gau-||||de-|a-|mus, gau-|||
 A,,4 D,4 | D,4 G,4 | F,4 C,4 | D,4 G,4 | F,4 C,4 | F,4 D,4 | G,4 F,4 | D,8- | D,4 C,4 | G,4 F,4 | %21
w: * de-|a- mus,|gau- *|* de-|a- mus,|gau- *|* de-|a-|* mus|gau- *|
 G,8 | D,4 z4 | D,4 F,4 | D,2 G,,4 B,,2 | C,4 D,4- | D,4 C,4 | D,8 | z4 C,4 | F,2 F,4 C,2 | %30
w: |de|a- mus,|gau- * *|||de-|a-|mus, gau- *|
 A,,4 B,,4 | D,4 C,4 | B,,4 D,4 | G,,4 D,2 B,,2 | C,2 A,,4 G,,2 | A,,4 D,4 || F,8 | F,8 | F,4 D,4 | %39
w: * de-|a- mus,|gau- *|de- a- mus.|Ps.Ex- * *|* sul-|tet|ju-|sti in|
 E,4 D,4 | C,8 | F,8 | E,2 F,2 B,,4 | D,8 || F,8 | F,8 | F,8 | F,8 | F,4 G,4 | D,8 | C,8 | F,8 | %52
w: Do- _|mi-|no.|Glo- * *|ri-|a|Pa-|tri|et|Fi- li-|o|et|Spi-|
 F,8 | F,8 | F,4 G,4 | D,4 C,4- | C,4 F,4 | F,4 D,4 | B,,2 F,2 D,4 | G,,8 | D,8 |] %61
w: ri-|tu-|i San|cto. A-|_ men|mus, *|||gau-|

